assets/images/google-cloud-logo.svg

<svg height="19" viewBox="0 0 24 19" width="24" xmlns="http://www.w3.org/2000/svg" xmlns:xlink="http://www.w3.org/1999/xlink"><mask id="a" height="18.9" maskUnits="userSpaceOnUse" width="23.6" x="0" y="0"><path d="m0 0h23.6v18.9h-23.6z" fill="#fff" fill-rule="evenodd"/></mask><path d="m6.6 5.6h.7c-.2 0-.4 0-.7 0m10.2 9.2h-5.1-5.1c-.4 0-.7-.1-1-.2-1.6-.7-2-2.9-.8-4.1 1.3-1.3 3.4-.9 4.1.8l3-3c-1.1-1.4-2.6-2.3-4.3-2.5h.3.1c1.8-2 4.9-2.2 7-.5 1.2 1 1.9 2.5 1.8 4v.5c3.5-.1 3.5 5 0 5m-12-8.9h-.1zm-.9.3s-.1 0-.1.1c0 0 0 0 .1-.1m1.8-.5c-.1 0 0 0 0 0m14.9 1.1c-.5-1.7-1.4-3.3-2.8-4.5v-.1c-2.4-2.1-5.7-2.8-8.7-1.9-3.1 1-5.4 3.4-6.3 6.5h.2.1c-1.2.8-2.2 2-2.7 3.4-.9 2.7 0 5.6 2.2 7.4l.7-.7-.7.7c1.2.9 2.6 1.3 4 1.3h5.1 5.1c2.9 0 5.5-1.9 6.4-4.7s-.1-5.8-2.6-7.4" fill="#262626" fill-rule="evenodd" mask="url(#a)" opacity=".5"/></svg>

<svg width="24px" height="19px" viewBox="0 0 24 19" version="1.1" xmlns="http://www.w3.org/2000/svg" xmlns:xlink="http://www.w3.org/1999/xlink">
    <!-- Generator: Sketch 51.2 (57519) - http://www.bohemiancoding.com/sketch -->
    <desc>Created with Sketch.</desc>
    <defs>
        <polygon id="path-1" points="0 0.000281481482 23.5536382 0.000281481482 23.5536382 18.8968369 0 18.8968369"></polygon>
    </defs>
    <g id="desktop" stroke="none" stroke-width="1" fill="none" fill-rule="evenodd" opacity="0.5">
        <g id="01_Homepage" transform="translate(-981.000000, -4014.000000)">
            <g id="GetStarted" transform="translate(0.000000, 3522.000000)">
                <g id="Via-CLoud" transform="translate(953.000000, 71.000000)">
                    <g id="Button-Copy" transform="translate(0.000000, 398.000000)">
                       <g id="Cloud_Google" transform="translate(28.000000, 23.000000)">
						<g id="Page-1">
							<g id="Clip-2">
							</g>
							<defs>
								<filter id="Adobe_OpacityMaskFilter" filterUnits="userSpaceOnUse" x="0" y="0" width="23.6" height="18.9">
									<feColorMatrix  type="matrix" values="1 0 0 0 0  0 1 0 0 0  0 0 1 0 0  0 0 0 1 0"/>
								</filter>
							</defs>
							<mask maskUnits="userSpaceOnUse" x="0" y="0" width="23.6" height="18.9" id="mask-2">
								<g filter="url(#Adobe_OpacityMaskFilter)">
									<polygon id="path-1" fill="#FFFFFF" points="0,0 23.6,0 23.6,18.9 0,18.9 									"/>
								</g>
							</mask>
							<path id="Fill-1" mask="url(#mask-2)" fill="#262626" d="M6.6,5.6c0.2,0,0.5,0,0.7,0C7.1,5.6,6.9,5.6,6.6,5.6 M16.8,14.8
								h-5.1l0,0v0H6.6c-0.4,0-0.7-0.1-1-0.2l0,0c-1.6-0.7-2-2.9-0.8-4.1c1.3-1.3,3.4-0.9,4.1,0.8l3-3c-1.1-1.4-2.6-2.3-4.3-2.5
								c0.1,0,0.2,0,0.3,0c0,0,0,0,0.1,0c1.8-2,4.9-2.2,7-0.5H15c1.2,1,1.9,2.5,1.8,4v0.5C20.3,9.7,20.3,14.8,16.8,14.8 M4.8,5.9
								c0,0-0.1,0-0.1,0C4.7,5.9,4.7,5.9,4.8,5.9 M3.9,6.2c0,0-0.1,0-0.1,0.1C3.8,6.3,3.8,6.3,3.9,6.2 M5.7,5.7
								C5.7,5.7,5.6,5.7,5.7,5.7C5.6,5.7,5.7,5.7,5.7,5.7 M20.6,6.8c-0.5-1.7-1.4-3.3-2.8-4.5l0,0l0-0.1c-2.4-2.1-5.7-2.8-8.7-1.9
								C6,1.3,3.7,3.7,2.8,6.8c0,0,0.1,0,0.2,0c0,0,0,0,0.1,0c-1.2,0.8-2.2,2-2.7,3.4c-0.9,2.7,0,5.6,2.2,7.4l0.7-0.7l-0.7,0.7l0,0
								c1.2,0.9,2.6,1.3,4,1.3h5.1l0,0h5.1c2.9,0,5.5-1.9,6.4-4.7C24.1,11.4,23.1,8.4,20.6,6.8"/>
						</g>
					</g>
                    </g>
                </g>
            </g>
        </g>
    </g>
</svg>
